X:1
T:Vere languores - Ingegnieri
T:#
%%score { 1 | 2 } 3
L:1/8
Q:1/4=56
M:4/4
K:Ab
V:1 treble nm="Soprano I" snm="S"
V:2 treble 
V:3 treble nm="Alto" snm="A"
V:1
"^Vere languores""^Marco Antonio Ingegneri\n(1547-92)""^lento" z8 | z8 | z8 | z8 | e6 c2- | %5
w: ||||et do\-|
[M:4/4] c2 d4 B2- | B2 c4 A2 | B4 B2 c2 | (d4 c4 | B8) | !fermata!A8 |] %11
w: * lo- res|* no- stros|i- pse por-|ta\- *||vit.|
V:2
 c4 c2 e2 | d2 c2 B4 | c2 d4 c2 | B4 c4- | c4 c4 |[M:4/4] A4 B4 | G4 A4 | G4 z2 E2 | F2 G2 (A4- | %9
w: Ve- re lan-|guo- res no-|stros i- pse|tu- lit,|* et|do- lo-|res no-|stros i-|pse por- ta\-|
 A2 GF G4) | !fermata!A8 |] %11
w: |vit.|
V:3
 A4 A2 G2 | F2 E2 D4 | C2 F2 G2 (A2- | AG/F/ G2) A4 | z4 A4 |[M:4/4] F4 _G4 | E4 F4 | E2 E2 D2 C2 | %8
w: Ve- re lan-|guo- res no-|stros i- pse tu\-|* * * * lit,|et|do- lo-|res no-|stros i- pse por-|
 (B,4 A,4 | E8) | !fermata!A,8 |] %11
w: ta\- *||vit.|

